teeny/outline/google-ad.svg

<svg width="15" height="15" viewBox="0 0 15 15" fill="none" xmlns="http://www.w3.org/2000/svg">
<path d="M3.5 10V7C3.5 6.17157 4.17157 5.5 5 5.5C5.82843 5.5 6.5 6.17157 6.5 7V10M11.5 5V10M11.5 7.5H9.5C8.94772 7.5 8.5 7.94772 8.5 8.5C8.5 9.05228 8.94772 9.5 9.5 9.5H11.5M3.5 8.5H6.5M2.5 2.5H12.5C13.6046 2.5 14.5 3.39543 14.5 4.5V10.5C14.5 11.6046 13.6046 12.5 12.5 12.5H2.5C1.39543 12.5 0.5 11.6046 0.5 10.5V4.5C0.5 3.39543 1.39543 2.5 2.5 2.5Z" stroke="black"/>
</svg>

<svg viewBox="0 0 15 15" xmlns="http://www.w3.org/2000/svg"><path fill="none" stroke="#000" d="M3.5 10V7c0-.83.67-1.5 1.5-1.5 .82 0 1.5.67 1.5 1.5v3m5-5v5m0-2.5h-2c-.56 0-1 .44-1 1 0 .55.44 1 1 1h2m-8-1h3m-4-6h10c1.1 0 2 .89 2 2v6c0 1.1-.9 2-2 2h-10c-1.11 0-2-.9-2-2v-6c0-1.11.89-2 2-2Z"/></svg>
